svg/blobs-icons/no-decorations/shower.svg

<svg xmlns="http://www.w3.org/2000/svg" xmlns:xlink="http://www.w3.org/1999/xlink" preserveAspectRatio="xMidYMid" width="142" height="217" viewBox="0 0 142 217"><defs><style>.cls-3{fill:#142a3b}.cls-4{fill:#010101;opacity:.35}.cls-5{fill:#ff3a2f}.cls-6{fill:#2476ff}.cls-12{fill:#000;opacity:.35}.cls-13{fill:#fbb713}.cls-14{fill:#000;opacity:.25}</style></defs><g id="group-11svg"><path d="M85.675 49.646C82.903 33.634 68.944 21.457 52.14 21.457c-18.797.0-34.036 15.239-34.036 34.037L18.808 211.175s-18.802.0-18.802.0.855-159.88.855-159.88C.861 22.974 23.819.015 52.14.015s51.278 22.959 51.278 51.28" id="path-1" class="cls-3" fill-rule="evenodd"/><path d="M103.236 47.678C102.937 43.411 102.145 39.285 100.866 35.369 99.312 34.876 97.69 34.539 95.974 34.539H91.275C87.51 34.539 84.087 35.87 81.33 38.017 83.07 40.917 84.381 44.095 85.199 47.473 87.928 46.926 90.732 46.585 93.624 46.585 96.932 46.585 100.145 46.968 103.236 47.678z" id="path-2" class="cls-4" fill-rule="evenodd"/><path d="M141.494 115.758s-95.739.0-95.739.0.0-8.815.0-8.815 95.739.0 95.739.0.0 8.815.0 8.815z" id="path-3" class="cls-5" fill-rule="evenodd"/><path d="M116.379 152.018c0-4.77000000000001 8.636-15.554 8.636-15.554S133.651 147.248 133.651 152.018C133.651 156.787 129.784 160.655 125.015 160.655c-4.77.0-8.636-3.868-8.636-8.637z" id="path-4" class="cls-6" fill-rule="evenodd"/><path d="M85.642 152.018C85.642 147.248 94.278 136.464 94.278 136.464s8.637 10.784 8.637 15.554C102.915 156.787 99.047 160.655 94.278 160.655 89.508 160.655 85.642 156.787 85.642 152.018z" id="path-5" class="cls-6" fill-rule="evenodd"/><path d="M54.905 152.018C54.905 147.248 63.541 136.464 63.541 136.464s8.637 10.784 8.637 15.554C72.178 156.787 68.311 160.655 63.541 160.655c-4.769.0-8.636-3.868-8.636-8.637z" id="path-6" class="cls-6" fill-rule="evenodd"/><path d="M100.371 189.202C100.371 185.569 106.947 177.357 106.947 177.357S113.524 185.569 113.524 189.202C113.524 192.834 110.579 195.778 106.947 195.778 103.315 195.778 100.371 192.834 100.371 189.202z" id="path-7" class="cls-6" fill-rule="evenodd"/><path d="M66.587 210.318C66.587 206.686 73.162 198.472 73.162 198.472s6.577 8.214 6.577 11.846C79.739 213.95 76.795 216.893 73.162 216.893 69.53 216.893 66.587 213.95 66.587 210.318z" id="path-8" class="cls-6" fill-rule="evenodd"/><path d="M93.624 55.032C100.294 55.032 106.589 56.574 112.24 59.252c0-8.984-7.282-16.267-16.266-16.267H91.275C82.291 42.985 75.008 50.268 75.008 59.252 80.66 56.574 86.955 55.032 93.624 55.032z" id="path-9" class="cls-5" fill-rule="evenodd"/><path d="M75.008 59.252C80.66 56.574 86.955 55.032 93.624 55.032 100.294 55.032 106.589 56.574 112.24 59.252c0-2.978-.85799999999999-5.733-2.255-8.133H77.264C75.867 53.519 75.008 56.274 75.008 59.252z" id="path-10" class="cls-12" fill-rule="evenodd"/><path d="M136.393 106.943C136.916 104.246 137.209 101.467 137.209 98.617c0-24.071-19.514-43.585-43.585-43.585S50.04 74.546 50.04 98.617C50.04 101.467 50.333 104.246 50.855 106.943h85.538z" id="path-11" class="cls-13" fill-rule="evenodd"/><path d="M50.068 103.408C50.105 106.057 50.368 104.427 50.855 106.943h85.538C136.881 104.427 137.144 101.834 137.181 99.186L50.068 103.408z" id="path-12" class="cls-14" fill-rule="evenodd"/></g></svg>

<svg xmlns="http://www.w3.org/2000/svg" xmlns:xlink="http://www.w3.org/1999/xlink" preserveAspectRatio="xMidYMid" width="142" height="217" viewBox="0 0 142 217">
  <defs>
    <style>

      .cls-3 {
        fill: #142a3b;
      }

      .cls-4 {
        fill: #010101;
        opacity: 0.35;
      }

      .cls-5 {
        fill: #ff3a2f;
      }

      .cls-6 {
        fill: #2476ff;
      }

      .cls-12 {
        fill: #000000;
        opacity: 0.35;
      }

      .cls-13 {
        fill: #fbb713;
      }

      .cls-14 {
        fill: #000000;
        opacity: 0.25;
      }
    </style>
  </defs>
  <g id="group-11svg">
    <path d="M85.675,49.646 C82.903,33.634 68.944,21.457 52.140,21.457 C33.343,21.457 18.104,36.696 18.104,55.494 C18.104,55.494 18.808,211.175 18.808,211.175 C18.808,211.175 0.006,211.175 0.006,211.175 C0.006,211.175 0.861,51.295 0.861,51.295 C0.861,22.974 23.819,0.015 52.140,0.015 C80.461,0.015 103.418,22.974 103.418,51.295 C103.418,51.295 103.418,51.295 103.418,51.295 " id="path-1" class="cls-3" fill-rule="evenodd"/>
    <path d="M103.236,47.678 C102.937,43.411 102.145,39.285 100.866,35.369 C99.312,34.876 97.690,34.539 95.974,34.539 C95.974,34.539 91.275,34.539 91.275,34.539 C87.510,34.539 84.087,35.870 81.330,38.017 C83.070,40.917 84.381,44.095 85.199,47.473 C87.928,46.926 90.732,46.585 93.624,46.585 C96.932,46.585 100.145,46.968 103.236,47.678 Z" id="path-2" class="cls-4" fill-rule="evenodd"/>
    <path d="M141.494,115.758 C141.494,115.758 45.755,115.758 45.755,115.758 C45.755,115.758 45.755,106.943 45.755,106.943 C45.755,106.943 141.494,106.943 141.494,106.943 C141.494,106.943 141.494,115.758 141.494,115.758 Z" id="path-3" class="cls-5" fill-rule="evenodd"/>
    <path d="M116.379,152.018 C116.379,147.248 125.015,136.464 125.015,136.464 C125.015,136.464 133.651,147.248 133.651,152.018 C133.651,156.787 129.784,160.655 125.015,160.655 C120.245,160.655 116.379,156.787 116.379,152.018 Z" id="path-4" class="cls-6" fill-rule="evenodd"/>
    <path d="M85.642,152.018 C85.642,147.248 94.278,136.464 94.278,136.464 C94.278,136.464 102.915,147.248 102.915,152.018 C102.915,156.787 99.047,160.655 94.278,160.655 C89.508,160.655 85.642,156.787 85.642,152.018 Z" id="path-5" class="cls-6" fill-rule="evenodd"/>
    <path d="M54.905,152.018 C54.905,147.248 63.541,136.464 63.541,136.464 C63.541,136.464 72.178,147.248 72.178,152.018 C72.178,156.787 68.311,160.655 63.541,160.655 C58.772,160.655 54.905,156.787 54.905,152.018 Z" id="path-6" class="cls-6" fill-rule="evenodd"/>
    <path d="M100.371,189.202 C100.371,185.569 106.947,177.357 106.947,177.357 C106.947,177.357 113.524,185.569 113.524,189.202 C113.524,192.834 110.579,195.778 106.947,195.778 C103.315,195.778 100.371,192.834 100.371,189.202 Z" id="path-7" class="cls-6" fill-rule="evenodd"/>
    <path d="M66.587,210.318 C66.587,206.686 73.162,198.472 73.162,198.472 C73.162,198.472 79.739,206.686 79.739,210.318 C79.739,213.950 76.795,216.893 73.162,216.893 C69.530,216.893 66.587,213.950 66.587,210.318 Z" id="path-8" class="cls-6" fill-rule="evenodd"/>
    <path d="M93.624,55.032 C100.294,55.032 106.589,56.574 112.240,59.252 C112.240,59.252 112.240,59.252 112.240,59.252 C112.240,50.268 104.958,42.985 95.974,42.985 C95.974,42.985 91.275,42.985 91.275,42.985 C82.291,42.985 75.008,50.268 75.008,59.252 C75.008,59.252 75.008,59.252 75.008,59.252 C80.660,56.574 86.955,55.032 93.624,55.032 Z" id="path-9" class="cls-5" fill-rule="evenodd"/>
    <path d="M75.008,59.252 C80.660,56.574 86.955,55.032 93.624,55.032 C100.294,55.032 106.589,56.574 112.240,59.252 C112.240,56.274 111.382,53.519 109.985,51.119 C109.985,51.119 77.264,51.119 77.264,51.119 C75.867,53.519 75.008,56.274 75.008,59.252 Z" id="path-10" class="cls-12" fill-rule="evenodd"/>
    <path d="M136.393,106.943 C136.916,104.246 137.209,101.467 137.209,98.617 C137.209,74.546 117.695,55.032 93.624,55.032 C69.553,55.032 50.040,74.546 50.040,98.617 C50.040,101.467 50.333,104.246 50.855,106.943 C50.855,106.943 136.393,106.943 136.393,106.943 Z" id="path-11" class="cls-13" fill-rule="evenodd"/>
    <path d="M50.068,103.408 C50.105,106.057 50.368,104.427 50.855,106.943 C50.855,106.943 136.393,106.943 136.393,106.943 C136.881,104.427 137.144,101.834 137.181,99.186 C137.181,99.186 50.068,103.408 50.068,103.408 Z" id="path-12" class="cls-14" fill-rule="evenodd"/>
  </g>
</svg>
